X:228
T:Three Oxford scholars - Bennett
%%VWML:SBG-1-2-289-0
F:http://www.vwml.org/record/SBG/1/2/289
Z:Original Sibelius transcriptions by M. & S. Graebe
M:3/4
I:linebreak $
K:Eb
V:1 treble nm="P1"
V:1
 B | B G E | E E E | G A B | B A G | A G F | F G A |$ G A B | c !fermata!B B | B G B | B G B | %11
 c d e | d c B | c d e |$ B G E | F G F | D C B, | E3/2 E/ E | E3/2 E/ E | G3/2 A/ B | c B x | %21

